X:302
T: ET SAS E KLI WAELTFIJELTCHEN
N: E0173A
O: Europa, Mitteleuropa, Deutschland; Rumaenien, Siebenbuergen, Muhlbach
R: erzaehlendes Volks - Lied, Sage, Tier - Maerchen
M: 3/4
L: 1/16
K: G
D2 | G3GG4A4 | _B3AG6
G2 | d2d2D2D2 | G4G4z2
d2 | d3c_B6d2 | c3_BA4z2
A2 | G3A_B6F2 | G4G4z2

@@@ Tune index: 3952
